dist/svgs/org-circle-up.svg

<svg xmlns="http://www.w3.org/2000/svg" viewBox="0 0 512 512"><path d="M346 281q6 5 6 13t-6 14q-5 5-13 5t-14-5l-63-63-63 63q-6 5-14 5t-13-5q-6-6-6-14t6-13l76-77q6-6 14-6t14 6zM256 0q53 0 99.5 20T437 75t55 81.5 20 99.5-20 99.5-55 81.5-81.5 55-99.5 20-99.5-20T75 437t-55-81.5T0 256t20-99.5T75 75t81.5-55T256 0zm0 474q45 0 84.5-17t69.5-47 47-69.5 17-84.5-17-84.5-47-69.5-69.5-47T256 38t-84.5 17-69.5 47-47 69.5T38 256t17 84.5 47 69.5 69.5 47 84.5 17z"/></svg>

<?xml version="1.0" encoding="UTF-8" standalone="no"?><svg   xmlns:svg="http://www.w3.org/2000/svg"   xmlns="http://www.w3.org/2000/svg"   version="1.1"   width="512"   height="512"   viewBox="0 0 512 512">  <path     d="M346 281Q352 286 352 294T346 308Q341 313 333 313T319 308L256 245L193 308Q187 313 179 313T166 308Q160 302 160 294T166 281L242 204Q248 198 256 198T270 204zM256 0Q309 0 355.5 20T437 75T492 156.5T512 256T492 355.5T437 437T355.5 492T256 512T156.5 492T75 437T20 355.5T0 256T20 156.5T75 75T156.5 20T256 0zM256 474Q301 474 340.5 457T410 410T457 340.5T474 256T457 171.5T410 102T340.5 55T256 38T171.5 55T102 102T55 171.5T38 256T55 340.5T102 410T171.5 457T256 474z"     id="org-circle-up" /></svg>
